X:1
T:Pie Jesu
T:Pie Jesu
%%score [ 1 2 ] { ( 3 4 ) | ( 5 6 ) }
L:1/8
Q:1/4=60
M:4/4
K:F
V:1 treble nm="Part 1" snm="Part 1"
V:2 treble nm="Part 2" snm="Part 2"
V:3 treble nm="Piano" snm="Pno."
V:4 treble 
V:5 bass 
V:6 bass 
V:1
 z8 | z8 | z4 z2 AA | B2 G2- G z DB | A2 G2- G z AA | B2 G2- G z DB | A2 G4 z c | f2 ed cBAB | %8
w: ||Pi- e|Je- su, _ pi- e|Je- su _ pi- e|Je- su _ pi- e|je- su, qui|tol- lis pec- ca- ta mun- di|
 cccA cA/f/- f2- | f z ed cBAc | A/G/ F3 z4 | z8 | z8 | z8 | z6 z c | f2 ed cBAB | cccA cA/f/- f2 | %17
w: do- na e- is re- qui- em, _|_ do- na e- * * is|re- qui- em.||||qui|tol- lis pec- ca- ta mun- di|do- na e- is re- qui- em, _|
 z2 ed cBAc | A/G/ F3- F z z2 | z8 | z4 z2 AA | B2 G2- G z DB | A2 G2- G z AA | B2 G2- G z DB | %24
w: do- na e- * * is|re- qui- em. *||Ag- nus|de- i, _ Ag- nus|de- i _ Ag- nus|De- i _ Ag- nus|
 A2 G4 z c | f2 ed cBAB | cccA cA/f/- f2 | z2 ed cBAc | A/G/ F3 z2 Ac | A/G/ F3 z2 Ac | %30
w: de- i. qui|tol- lis pec- ca- ta mun- di|do- na e- is re- qui- em, _|do- na e- * * is|re- qui- em. sem- pi-|ter- * nam. sem- pi-|
 A/G/ F2 z f2 E2 | F6 z2 |] %32
w: ter- * nam. re- qui-|em.|
V:2
 z8 | z8 | z8 | z8 | z8 | z8 | z8 | z8 | z8 | z8 | z4 z2 AA | B2 G2- G z DB | A2 G2- G z AA | %13
w: ||||||||||Pi- e|Je- su, _ pi- e|Je- su _ pi- e|
 B2 G2- G z DB | A2 G4 z A | d2 cB AGFG | AAAF AF/d/- d2 | z2 cB AGFE | F/C/ A,3- A, z z2 | z8 | %20
w: Je- su _ pi- e|je- su, qui|tol- lis pec- ca- ta mun- di|do- na e- is re- qui- em, _|do- na e- * * is|re- qui- em. *||
 z4 z2 CC | D2 B,2- B, z B,D | C2 B,2- B, z CC | D2 B,2- B, z B,D | C2 B,4 z A | d2 cB AGFG | %26
w: Ag- nus|de- i, _ Ag- nus|de- i _ Ag- nus|De- i _ Ag- nus|de- i. qui|tol- lis pec- ca- ta mun- di|
 AAAF AF/d/- d2 | z2 cB AGFE | F/C/ A,3 z2 FA | C/B,/ A,3 z2 FA | F/E/ D2 z z2 Ac | %31
w: do- na e- is re- qui- em, _|do- na e- * * is|re- qui- em. sem- pi-|ter- * nam. sem- pi-|ter- * nam. sem- pi-|
 A/G/ F3- F2 z2 |] %32
w: ter- * nam. *|
V:3
 FFFF EEAc | A/G/ F3- F2 Ac | A/G/ F3 DF[FA][FA] | [B,DGB]2 [G,B,DG]4 [G,B,D][B,DGB] | %4
 [B,CEA]2 [B,CEG]4 [A,CFA][A,CFA] | [B,DGB]2 [G,B,DG]4 [G,B,D][B,DGB] | [A,CEA]2 [G,CEG]2 G,CEG | %7
 [DF]2 [CE][B,D] C4 | [F,C]4 [F,A,]4 | [F,B,D]4 [E,G,]4 |[K:bass] [F,A,]>C, A,F, CA, C,2 | %11
[K:treble] [G,B,][G,D]/[B,G]/ [DB][B,G] [G,D][B,G] [DB]2 | %12
 [CEA][G,C]/[B,E]/ [CEG][B,E] [G,C][CG][FA][A,C] | %13
 [D,G,B,][G,D]/[B,G]/ [DB][B,G] [G,D][B,G] [DGB]2 | %14
 [CEA][G,C]/[B,E]/ [CEG][B,E] [G,C][B,E][CG][EA] | [FBdf]4 [G,CE]4 | %16
 [F,A,]2 [A,C]2 [F,A,]2 [A,DF]2- | [DF]4 [E,C]4 | FFFF EEAc | A/G/ F3- F2 Ac | %20
 A/G/ F3- F2 [FA][FA] | [DGB]2 [B,DG]4 [B,D][DGB] | [CEA]2 [B,EG]4 [A,CFA][A,CFA] | %23
 [DGB]2 [B,DG]4 [B,D][DGB] | [CEA]2 [B,EG]4 [E,A,C]2 | F3 F [CE]4 | C2 CA F2 A,2 | %27
 [F,B,D]4 [E,B,C]4 | FFFF EE E2 | DDDD CC C2 |[K:bass] [D,F,]2 F,/B,/D [D,F,B,]2 [B,,C,E,]2 | %31
 [B,,D,F,B,]2 [D,G,B,D]2 [C,F,A,C]2 z2 |] %32
V:4
 x6 E2 | DDDD CC C2 | [B,D]4 DF[A,C][A,C] | x8 | x8 | x8 | x8 | A,4 G,4 | x8 | x8 |[K:bass] x8 | %11
[K:treble] x8 | x8 | x8 | x8 | x8 | x8 | x8 | [A,C]4 [A,C]2 E2 | DDDD CC C2 | %20
 [B,D]4 [F,B,D]2 [A,C][A,C] | x8 | x8 | x8 | x8 | [B,D]F,/B,/ DF G,4 | [F,A,]F,/A,/ C2 A,2 F,2 | %27
 x8 | [A,C]4 [A,C]4 | [F,A,]4 [F,A,]4 |[K:bass] x8 | x8 |] %32
V:5
 F,,>C, A,F, CA, C,2 | F,,>D, A,F, CA, C,2 | B,,,F,,/D,/ F,A, B,2 C,C, | %3
 [F,,B,,D,]2 [F,,B,,D,]4 [F,,B,,D,][F,,B,,D,] | [F,,C,E,]2 [F,,C,E,]4 [F,,C,][F,,C,] | %5
 [F,,B,,D,]2 [F,,B,,D,]4 [B,,,B,,][B,,,B,,] | C,G,,C,E, z4 | [B,,,F,,D,]4 [B,,E,]4 | %8
 A,,4 [D,,A,,]4 | G,,4 C,,4 | F,,6 F,,F,, | [F,,B,,D,]2 [F,,B,,D,]4 [F,,B,,D,][F,,B,,D,] | %12
 [G,,C,E,]2 [G,,C,E,]4 [F,,C,][F,,C,] | [B,,,B,,]2 [B,,,B,,]4 [B,,,B,,][B,,,B,,] | %14
 [C,,C,]2 [C,,C,]4 C,,2 | z F,,B,,F, z G,,C,E, | z C,F,C, z A,, D,2 | z D,G,B, C,4 | %18
 [F,,F,]4 [F,,E,]4 | [F,,D,]4 [F,,C,]4 | z F,,D,F, C,,D,C,C, | D,D,/G,/ B,G, D,G,G,D, | %22
 C,C,/E,/ G,E, C,G,,C,F, | D,D,/G,/ B,G, D,G,G,D, | C,C,/E,/ G,E, C,G,,A,,C, | B,,4 B,,4 | %26
 A,,6 A,,2 | G,,4 C,,4 | F,C,F,C, E,C,E,C, | D,A,,D,A,, C,C, C,2 | %30
 z/ F,,/B,,/D,/- [F,,D,]2 G,,2 C,,2 | [F,,,F,,]2 [F,,,F,,]2 [F,,,F,,]2 F,,, z |] %32
V:6
 x8 | x8 | x8 | x8 | x8 | x8 | C,,2 C,,6 | x8 | x8 | x8 | x8 | x8 | x8 | x8 | x8 | B,,,4 C,,4 | %16
 D,,3 C,, B,,,4 | G,,,4 C,,4 | x8 | x8 | B,,,4 x4 | F,,6 G,,G,, | C,,6 F,,F,, | F,,6 G,,G,, | %24
 C,,6 C,,2 | B,,,4 B,,,4 | A,,,4 D,,4 | x8 | F,,4 F,,4 | F,,4 F,,4 | B,,,4 x4 | x8 |] %32

